X: 192
T:Domine dominus noster
N: Derived from Jos1604-Domine_dominus_noster.krn
C: Josquin des Prez
%%abc-version 2.0
%%abcx-abcm2ps-target-version 5.9.1 (29 Sep 2008)
%%abc-creator hum2abc beta
%%abcx-conversion-date 2019/02/12 16:15:47
%%abc-edited-by Jesse Rodin
%%abc-edited-by Victoria Chang
%%abcx-initial-encoding-date 2011/03/21/
%%humdrum-veritas 1148882523
%%humdrum-veritas-data 2172644451
%%linebreak <none>
%%barnumbers 0
L: 1/4
M: 2/1
Q: 1/2=120
V: 1 clef=treble
V: 2 clef=treble-8
V: 3 clef=treble-8
V: 4 clef=treble-8
V: 5 clef=bass
K: C
[V:1] E4D4 | 
[V:2] z8 | 
[V:3] z8 | 
[V:4] z8 | 
[V:5] z8 | 
[V:1] E4B,4 | 
[V:2] e4d4 | 
[V:3] z8 | 
[V:4] z8 | 
[V:5] z8 | 
[V:1] z2E4D2 | 
[V:2] e4B4 | 
[V:3] z8 | 
[V:4] z8 | 
[V:5] z8 | 
[V:1] C2B,A,B,4 | 
[V:2] z2e4d2 | 
[V:3] z8 | 
[V:4] z8 | 
[V:5] z8 | 
[V:1] A,2E4D2 | 
[V:2] c2BAB4 | 
[V:3] z8 | 
[V:4] z8 | 
[V:5] A,4G,4 | 
[V:1] C2B,A,B,4 | 
[V:2] A2a4g2 | 
[V:3] z8 | 
[V:4] z8 | 
[V:5] A,4E,4 | 
[V:1] z2A3Gc2 | 
[V:2] f2ede4 | 
[V:3] z8 | 
[V:4] z8 | 
[V:5] D,4C,4 | 
[V:1] B2A4G2 | 
[V:2] d3cB4 | 
[V:3] z8 | 
[V:4] z8 | 
[V:5] D,4E,4 | 
[V:1] z2A2A2A2 | 
[V:2] A3G/F/E4 | 
[V:3] z2A2A2A2 | 
[V:4] e8 | 
[V:5] A,,8 | 
[V:1] F3GA2G2 | 
[V:2] z8 | 
[V:3] D3EF2G2 | 
[V:4] d8 | 
[V:5] z8 | 
[V:1] G6FE | 
[V:2] z8 | 
[V:3] C4CDEF | 
[V:4] e8 | 
[V:5] z8 | 
[V:1] D2G2G2G2 | 
[V:2] z2e2e2e2 | 
[V:3] G2G2G2G2 | 
[V:4] B8 | 
[V:5] z2E,2E,2E,2 | 
[V:1] A6A2 | 
[V:2] c3de2d2 | 
[V:3] E6F2 | 
[V:4] A8 | 
[V:5] A,,3B,,C,2D,2 | 
[V:1] B2c4c2 | 
[V:2] B2e4e2 | 
[V:3] D2E4E2 | 
[V:4] G8 | 
[V:5] G,,2C,4C,2 | 
[V:1] A4A4 | 
[V:2] c4d4 | 
[V:3] F4D4 | 
[V:4] A8 | 
[V:5] F,4F,4 | 
[V:1] G8- | 
[V:2] e8- | 
[V:3] G3EG3A | 
[V:4] B8 | 
[V:5] E,8- | 
[V:1] G8 | 
[V:2] e4z2e2 | 
[V:3] B8 | 
[V:4] z8 | 
[V:5] E,8 | 
[V:1] z2A2A2A2 | 
[V:2] e2c4c2 | 
[V:3] z8 | 
[V:4] z8 | 
[V:5] z8 | 
[V:1] FGABc4- | 
[V:2] d2d2e4- | 
[V:3] z4z2c2 | 
[V:4] z8 | 
[V:5] z4z2A,2 | 
[V:1] c4z4 | 
[V:2] e4z4 | 
[V:3] f3ed2c2 | 
[V:4] z8 | 
[V:5] A,2F,4F,2 | 
[V:1] z2G2c3B | 
[V:2] z4z2e2 | 
[V:3] B4A4 | 
[V:4] z8 | 
[V:5] G,2G,2A,3G, | 
[V:1] A2G2F4 | 
[V:2] e2c2d2d2 | 
[V:3] z4z2A2 | 
[V:4] z8 | 
[V:5] F,2E,2D,4 | 
[V:1] E8 | 
[V:2] e3dc2B2 | 
[V:3] c3BA2G2 | 
[V:4] z8 | 
[V:5] C,8 | 
[V:1] z2D2G3F | 
[V:2] A4G4- | 
[V:3] F4E4 | 
[V:4] z8 | 
[V:5] D,4E,3D, | 
[V:1] E2D2C4 | 
[V:2] G4z2A2 | 
[V:3] z2D2E2F2 | 
[V:4] z8 | 
[V:5] C,2B,,2A,,4 | 
[V:1] B,2E4D2 | 
[V:2] B2c2A2B2 | 
[V:3] D2E2F4 | 
[V:4] z8 | 
[V:5] G,,2C,2D,4 | 
[V:1] E8- | 
[V:2] c4B2E2 | 
[V:3] E8 | 
[V:4] z8 | 
[V:5] A,,4z2A,,2- | 
[V:1] E4z2E2- | 
[V:2] z2E3EE2 | 
[V:3] z8 | 
[V:4] z8 | 
[V:5] A,,A,,A,,2C,4- | 
[V:1] EEE2G4- | 
[V:2] G6A2 | 
[V:3] z2E3EE2 | 
[V:4] e8- | 
[V:5] C,2D,2E,4- | 
[V:1] G2A2B4- | 
[V:2] B6c2 | 
[V:3] G6A2 | 
[V:4] e4d4- | 
[V:5] E,2F,2G,4- | 
[V:1] B4B4 | 
[V:2] d2G2G3G | 
[V:3] B3cd2G2 | 
[V:4] d8 | 
[V:5] G,4G,,4 | 
[V:1] c2G2G3G | 
[V:2] E2E2C2E2- | 
[V:3] G3GE2E2 | 
[V:4] e8- | 
[V:5] C,3C,C,2C,2 | 
[V:1] A2A2B3c | 
[V:2] EDEFG4- | 
[V:3] C2C2D4- | 
[V:4] e4B4- | 
[V:5] A,,2A,,2G,,4- | 
[V:1] d4D4- | 
[V:2] G8 | 
[V:3] D8- | 
[V:4] B8 | 
[V:5] G,,8 | 
[V:1] D2E2F4 | 
[V:2] z4A4- | 
[V:3] D4z4 | 
[V:4] A8- | 
[V:5] D,6E,2 | 
[V:1] C3DE3F | 
[V:2] A2B2c4 | 
[V:3] z4E4- | 
[V:4] A4G4- | 
[V:5] F,4C,3D, | 
[V:1] G8 | 
[V:2] G3AB3c | 
[V:3] E2F2G4 | 
[V:4] G8 | 
[V:5] E,8 | 
[V:1] z2F4ED | 
[V:2] d3c/B/A2d2 | 
[V:3] D3EF2G2 | 
[V:4] A8- | 
[V:5] F,2D,4C,B,, | 
[V:1] E2F2G3F/E/ | 
[V:2] c2A2d2G2- | 
[V:3] A2D2GABc | 
[V:4] A4B4- | 
[V:5] A,,2D,2G,,2G,2- | 
[V:1] D8 | 
[V:2] GABcd3c/B/ | 
[V:3] d2G2z2G2 | 
[V:4] B8 | 
[V:5] G,2F,E,D,2G,2- | 
[V:1] z8 | 
[V:2] A4z2d2 | 
[V:3] c4B2G2 | 
[V:4] z8 | 
[V:5] G,2F,2G,3F, | 
[V:1] z2A2c4 | 
[V:2] f4e2c2 | 
[V:3] A6A2 | 
[V:4] z8 | 
[V:5] D,4z4 | 
[V:1] B2G2A4- | 
[V:2] d6d2 | 
[V:3] G4z4 | 
[V:4] z8 | 
[V:5] z4z2D,2 | 
[V:1] A2A2G4 | 
[V:2] c4z4 | 
[V:3] A4c4 | 
[V:4] z8 | 
[V:5] F,4E,2C,2 | 
[V:1] z4A4 | 
[V:2] d4f4 | 
[V:3] B2B2A2F2 | 
[V:4] z8 | 
[V:5] D,6D,2 | 
[V:1] c4B2B2 | 
[V:2] e2e2d4- | 
[V:3] G6G2 | 
[V:4] z8 | 
[V:5] C,4z4 | 
[V:1] A4z2F2 | 
[V:2] d4z4 | 
[V:3] A2A2D2A2- | 
[V:4] z8 | 
[V:5] D,4F,4 | 
[V:1] G2G2A4- | 
[V:2] z2c2d2d2 | 
[V:3] A2G2F2ED | 
[V:4] z8 | 
[V:5] E,2E,2D,4 | 
[V:1] A2G2F4 | 
[V:2] e2e2A2d2- | 
[V:3] A6GF | 
[V:4] z8 | 
[V:5] z2C,2D,2D,2 | 
[V:1] E8- | 
[V:2] d2cBc4- | 
[V:3] G4A3B | 
[V:4] z8 | 
[V:5] E,2E,2A,,4 | 
[V:1] E8 | 
[V:2] c4z2A2 | 
[V:3] cde4dc | 
[V:4] z8 | 
[V:5] z2A,,2A,2A,2 | 
[V:1] z8 | 
[V:2] d2d2cdec | 
[V:3] B4z4 | 
[V:4] z8 | 
[V:5] G,A,B,G,A,2E,2 | 
[V:1] z2E2A2A2 | 
[V:2] d2A2c4 | 
[V:3] z4z2A2 | 
[V:4] z8 | 
[V:5] G,2A,4F,2 | 
[V:1] GABGA2E2 | 
[V:2] defde2c2 | 
[V:3] d2d2cdec | 
[V:4] z8 | 
[V:5] _B,4A,4 | 
[V:1] G2A2F4 | 
[V:2] B2cBAGA2- | 
[V:3] d2A2c2d2 | 
[V:4] z8 | 
[V:5] G,2F,4D,2 | 
[V:1] E2E4D2 | 
[V:2] A2G2A4 | 
[V:3] B2c4BA | 
[V:4] z8 | 
[V:5] E,4F,4 | 
[V:1] E4z2G2 | 
[V:2] B4z2B2 | 
[V:3] G4z2G2 | 
[V:4] e8- | 
[V:5] E,4z2E,2 | 
[V:1] G2G2E4 | 
[V:2] B2B2c4 | 
[V:3] G2G2A4 | 
[V:4] e8 | 
[V:5] E,2E,2A,,4 | 
[V:1] z2F2F2F2 | 
[V:2] z2A2A2A2 | 
[V:3] z2F2F2F2 | 
[V:4] d8- | 
[V:5] z2D,2D,2D,2 | 
[V:1] D2G4F2 | 
[V:2] B2G2A4 | 
[V:3] G2D2F2F2 | 
[V:4] d8 | 
[V:5] G,,2G,,2D,4 | 
[V:1] G4A4 | 
[V:2] c6BA | 
[V:3] E8 | 
[V:4] e8- | 
[V:5] C,4A,,4 | 
[V:1] G8- | 
[V:2] B4z2G2- | 
[V:3] z8 | 
[V:4] e8 | 
[V:5] E,8- | 
[V:1] G8 | 
[V:2] G2E2E4 | 
[V:3] z2G4E2 | 
[V:4] B8- | 
[V:5] E,4z2G,2- | 
[V:1] z2G4E2 | 
[V:2] z2e4e2 | 
[V:3] E4z2e2- | 
[V:4] B8 | 
[V:5] G,2E,2E,4 | 
[V:1] E4z2A2- | 
[V:2] c2c2A4 | 
[V:3] e2e2c2c2 | 
[V:4] A8- | 
[V:5] z2A,4A,2 | 
[V:1] A2A2F2F2 | 
[V:2] z4z2d2- | 
[V:3] A4z4 | 
[V:4] A8 | 
[V:5] F,2F,2D,4 | 
[V:1] D4z4 | 
[V:2] d2B2B4 | 
[V:3] z2d4B2 | 
[V:4] G8- | 
[V:5] z4z2G,2- | 
[V:1] z2G4E2 | 
[V:2] z2e4e2 | 
[V:3] B4z2e2- | 
[V:4] G8 | 
[V:5] G,2E,2E,4 | 
[V:1] E4z2A2- | 
[V:2] c4A3B | 
[V:3] e2e2c4 | 
[V:4] A8- | 
[V:5] z2A,4A,2 | 
[V:1] A2A2F4 | 
[V:2] c2A4F2 | 
[V:3] A4d4- | 
[V:4] A8 | 
[V:5] F,4D,4 | 
[V:1] D4G2G2 | 
[V:2] G3ABcd2- | 
[V:3] d2G2G4 | 
[V:4] B8- | 
[V:5] G,6G,,2 | 
[V:1] G3F/E/D4 | 
[V:2] d2G2z2G2 | 
[V:3] z2D2G3A | 
[V:4] B8 | 
[V:5] G,,4G,,2G,2- | 
[V:1] z4z2D2 | 
[V:2] d3ef2d2 | 
[V:3] B2G2A2B2 | 
[V:4] z8 | 
[V:5] G,2F,E,D,4 | 
[V:1] G3AB2G2 | 
[V:2] e3fg3f/e/ | 
[V:3] c3B/A/G4 | 
[V:4] z8 | 
[V:5] C,4z4 | 
[V:1] A2B2c3B/A/ | 
[V:2] d2d2e3d/c/ | 
[V:3] z8 | 
[V:4] z8 | 
[V:5] z8 | 
[V:1] G2G2A3G/F/ | 
[V:2] B2c2A3B | 
[V:3] z4D4 | 
[V:4] z8 | 
[V:5] z8 | 
[V:1] E2F2D3E | 
[V:2] c4B2G2- | 
[V:3] A2A2G2G2 | 
[V:4] z8 | 
[V:5] z4G,,4 | 
[V:1] F4E4 | 
[V:2] G2F2G4 | 
[V:3] A3Bc4 | 
[V:4] z8 | 
[V:5] D,2D,2C,2C,2 | 
[V:1] z2D2A2A2 | 
[V:2] z8 | 
[V:3] B4A4 | 
[V:4] z8 | 
[V:5] D,3E,F,4 | 
[V:1] G2G2A3B | 
[V:2] G4d2d2 | 
[V:3] z4D4 | 
[V:4] z8 | 
[V:5] E,4D,4 | 
[V:1] c4B4 | 
[V:2] c2c2d3e | 
[V:3] A4G2G2 | 
[V:4] z8 | 
[V:5] z4G,,4 | 
[V:1] A4z4 | 
[V:2] f4e4 | 
[V:3] A3Bc4 | 
[V:4] z8 | 
[V:5] D,4C,2C,2 | 
[V:1] D4A4 | 
[V:2] d4z4 | 
[V:3] B4A2d2- | 
[V:4] z8 | 
[V:5] D,3E,F,4 | 
[V:1] G2G2A3B | 
[V:2] G4d4 | 
[V:3] d2c2f4 | 
[V:4] z8 | 
[V:5] E,4D,3C, | 
[V:1] c4B4 | 
[V:2] c2c2d3e | 
[V:3] e2cdB2c2- | 
[V:4] z8 | 
[V:5] A,,2A,4G,2 | 
[V:1] A2GFGFED | 
[V:2] f4e4 | 
[V:3] c2d2B4 | 
[V:4] z8 | 
[V:5] F,2D,2E,4 | 
[V:1] C2c4A2 | 
[V:2] z4c4 | 
[V:3] A4z2c2- | 
[V:4] z8 | 
[V:5] A,,8 | 
[V:1] A8 | 
[V:2] A2A2z2f2- | 
[V:3] c2A2A2d2- | 
[V:4] z8 | 
[V:5] z2F,4D,2- | 
[V:1] z2G4G2 | 
[V:2] f2d2d2e2- | 
[V:3] d2G2B2c2- | 
[V:4] z8 | 
[V:5] D,2G,4C,2 | 
[V:1] G2A4GF | 
[V:2] edc4B2 | 
[V:3] cBAGF4 | 
[V:4] z8 | 
[V:5] E,2F,2D,4 | 
[V:1] E2G2c3B | 
[V:2] c4z2G2 | 
[V:3] G8 | 
[V:4] z8 | 
[V:5] C,8- | 
[V:1] A2G2A2E2 | 
[V:2] c3BA2G2 | 
[V:3] z2G2c3B | 
[V:4] z8 | 
[V:5] C,8 | 
[V:1] c3BA2G2 | 
[V:2] A2E2c3B | 
[V:3] A2G2A2E2 | 
[V:4] e8- | 
[V:5] z8 | 
[V:1] A2E2c2B2 | 
[V:2] A2G2A2B2 | 
[V:3] c3BA2G2 | 
[V:4] e8- | 
[V:5] z8 | 
[V:1] AGFEF2F2- | 
[V:2] c4z2F2- | 
[V:3] A2A2D2A2- | 
[V:4] e4d4- | 
[V:5] z4D,4- | 
[V:1] F2D2F2F2- | 
[V:2] F2G2A2F2- | 
[V:3] A2G2F2A2- | 
[V:4] d8- | 
[V:5] D,2G,,2D,2D,2- | 
[V:1] F2D2F3E/D/ | 
[V:2] F2G2A3B | 
[V:3] A2G2F4 | 
[V:4] d8 | 
[V:5] D,2G,,2D,4 | 
[V:1] C4z4 | 
[V:2] c2A2A2B2 | 
[V:3] E2c2c2B2 | 
[V:4] e8- | 
[V:5] A,,2A,2A,2G,2 | 
[V:1] z2c2c2B2 | 
[V:2] c2A2A2B2 | 
[V:3] A3GE4 | 
[V:4] e8- | 
[V:5] A,2A,,2A,,2G,,2 | 
[V:1] A2A2G4- | 
[V:2] c3de4 | 
[V:3] E8- | 
[V:4] e4B4- | 
[V:5] A,,2A,,2E,4 | 
[V:1] G8 | 
[V:2] z2e2e2e2 | 
[V:3] E8 | 
[V:4] B8- | 
[V:5] z4z2E,2 | 
[V:1] z8 | 
[V:2] g2g2d4 | 
[V:3] z8 | 
[V:4] B8 | 
[V:5] E,2E,2G,2G,2 | 
[V:1] z8 | 
[V:2] f3gafa2- | 
[V:3] z8 | 
[V:4] A8- | 
[V:5] D,4F,3G, | 
[V:1] z8 | 
[V:2] agfefee2- | 
[V:3] z8 | 
[V:4] A8- | 
[V:5] A,F,A,3G,F,E, | 
[V:1] z8 | 
[V:2] e2d2e4- | 
[V:3] z8 | 
[V:4] A4G4- | 
[V:5] F,4E,4- | 
[V:1] z2E4E2 | 
[V:2] e4z4 | 
[V:3] z4z2E2- | 
[V:4] G8- | 
[V:5] E,8 | 
[V:1] G2G2D2D2 | 
[V:2] z8 | 
[V:3] E2E2G2G2 | 
[V:4] G8 | 
[V:5] z8 | 
[V:1] F3GAFA2 | 
[V:2] z8 | 
[V:3] D2D2F3G | 
[V:4] A8- | 
[V:5] z8 | 
[V:1] AGFEFEDC | 
[V:2] z8 | 
[V:3] AFA2AGFE | 
[V:4] A8- | 
[V:5] z4z2D,2- | 
[V:1] D4z4 | 
[V:2] z2d4d2 | 
[V:3] F4z4 | 
[V:4] A4B4- | 
[V:5] D,2D,2G,3F, | 
[V:1] z8 | 
[V:2] g3fe2d2 | 
[V:3] z8 | 
[V:4] B8- | 
[V:5] E,2D,2G,2G,2 | 
[V:1] z2G4G2 | 
[V:2] g4z2g2 | 
[V:3] z4z2G2- | 
[V:4] B8 | 
[V:5] G,3F,E,3D, | 
[V:1] c3BA2G2 | 
[V:2] g3fe2d2 | 
[V:3] G2G2c3B | 
[V:4] z8 | 
[V:5] C,8- | 
[V:1] c2c2c3B | 
[V:2] c2g2g3f | 
[V:3] A2G2c2c2 | 
[V:4] z8 | 
[V:5] C,8 | 
[V:1] A2G2F4 | 
[V:2] e3dc4 | 
[V:3] c3BA2A2 | 
[V:4] z8 | 
[V:5] z8 | 
[V:1] G8- | 
[V:2] z2d2e2d2 | 
[V:3] G2B2c2B2 | 
[V:4] z8 | 
[V:5] z2G,2C,2G,2 | 
[V:1] G8 | 
[V:2] e2d2B2c2 | 
[V:3] c2B4G2 | 
[V:4] z8 | 
[V:5] C,2G,4E,2 | 
[V:1] z8 | 
[V:2] d2e3dd2- | 
[V:3] A2B3AA2- | 
[V:4] z8 | 
[V:5] F,2G,2A,2D,2 | 
[V:1] z2G4F2 | 
[V:2] d2^c2d4 | 
[V:3] A2G2A4- | 
[V:4] z8 | 
[V:5] E,4D,4 | 
[V:1] E4z2G2 | 
[V:2] z2c4B2 | 
[V:3] A2GFE4 | 
[V:4] z8 | 
[V:5] z8 | 
[V:1] A3GF2E2 | 
[V:2] A4z2c2 | 
[V:3] z8 | 
[V:4] z8 | 
[V:5] z2D,4C,2 | 
[V:1] D4z2F2 | 
[V:2] d3cB2A2 | 
[V:3] z2G4F2 | 
[V:4] z8 | 
[V:5] B,,4z2D,2 | 
[V:1] G3FE2D2 | 
[V:2] G4z2B2 | 
[V:3] E4z2G2 | 
[V:4] z8 | 
[V:5] E,3D,C,2B,,2 | 
[V:1] C4z2E2 | 
[V:2] c3BA2G2 | 
[V:3] A3GF2E2 | 
[V:4] z8 | 
[V:5] A,,6C,2 | 
[V:1] F2D4C2 | 
[V:2] F3GA4- | 
[V:3] D2F2E4 | 
[V:4] z8 | 
[V:5] D,3C,A,,4 | 
[V:1] F6ED | 
[V:2] A4z4 | 
[V:3] DEFGADd2- | 
[V:4] z8 | 
[V:5] z4D,4 | 
[V:1] E4z4 | 
[V:2] A4e4 | 
[V:3] d2cBc4 | 
[V:4] z8 | 
[V:5] A,4A,2A,2 | 
[V:1] z4D4 | 
[V:2] e2e2d4 | 
[V:3] z8 | 
[V:4] z8 | 
[V:5] G,4z2G,2 | 
[V:1] A4A2A2 | 
[V:2] z2d2c2A2 | 
[V:3] z4A4 | 
[V:4] z8 | 
[V:5] F,2D,2F,4 | 
[V:1] G4z2G2 | 
[V:2] c4B4 | 
[V:3] e4e2e2 | 
[V:4] z8 | 
[V:5] E,8 | 
[V:1] F2D2F4 | 
[V:2] z8 | 
[V:3] d4z2d2 | 
[V:4] z8 | 
[V:5] z4D,4 | 
[V:1] E8 | 
[V:2] A4e4 | 
[V:3] c2A2c4 | 
[V:4] z8 | 
[V:5] A,4A,2A,2 | 
[V:1] z4D4 | 
[V:2] e2e2d4 | 
[V:3] B8 | 
[V:4] z8 | 
[V:5] G,4z2G,2 | 
[V:1] A4A2A2 | 
[V:2] z2d2c2A2 | 
[V:3] z4A4 | 
[V:4] z8 | 
[V:5] F,2D,2F,4 | 
[V:1] G4z2G2 | 
[V:2] c2B3Gc2 | 
[V:3] e4e2e2 | 
[V:4] z8 | 
[V:5] E,6C,2 | 
[V:1] F2D2F4 | 
[V:2] A8- | 
[V:3] d4z2d2 | 
[V:4] z8 | 
[V:5] D,8 | 
[V:1] E2c3BA2 | 
[V:2] A4E4 | 
[V:3] c2A2c4 | 
[V:4] e8- | 
[V:5] A,,8 | 
[V:1] G8 | 
[V:2] z2E3FGA | 
[V:3] B8- | 
[V:4] e8- | 
[V:5] E,8- | 
[V:1] z4z2G2- | 
[V:2] B2E2z2G2- | 
[V:3] B4z4 | 
[V:4] e8 | 
[V:5] E,8 | 
[V:1] G2FED2G2 | 
[V:2] GABcd2G2 | 
[V:3] z2G4FE | 
[V:4] d8- | 
[V:5] z8 | 
[V:1] F2D2z2G2- | 
[V:2] z2g4fe | 
[V:3] D2G3ABc | 
[V:4] d8- | 
[V:5] z4z2G,2- | 
[V:1] GABcd2B2 | 
[V:2] d2g2f2d2 | 
[V:3] d2G2A2B2 | 
[V:4] d8 | 
[V:5] G,2F,E,D,2G,2 | 
[V:1] c3BA2G2 | 
[V:2] g2c2c3B | 
[V:3] G4z2c2 | 
[V:4] e8- | 
[V:5] C,8- | 
[V:1] z2c2c4- | 
[V:2] A2G2z2c2- | 
[V:3] c3BA2G2 | 
[V:4] e8- | 
[V:5] C,4C,3B,, | 
[V:1] c2B2A4 | 
[V:2] cde2c3d | 
[V:3] A2E2z2E2 | 
[V:4] e8 | 
[V:5] A,,2G,,2A,,4 | 
[V:1] G4z2E2 | 
[V:2] e8 | 
[V:3] E2E2G2G2 | 
[V:4] B8- | 
[V:5] z2E,2E,2E,2 | 
[V:1] E2E2G2G2 | 
[V:2] z2e2e2e2 | 
[V:3] E4z2E2 | 
[V:4] B8- | 
[V:5] G,2G,2E,4- | 
[V:1] E2G3ABG | 
[V:2] g2g2e4 | 
[V:3] E2E2G2G2 | 
[V:4] B8 | 
[V:5] E,8 | 
[V:1] c3BA3G | 
[V:2] z4z2a2 | 
[V:3] E4F4 | 
[V:4] A8- | 
[V:5] A,,4D,4- | 
[V:1] F2E2D4 | 
[V:2] a3gf4 | 
[V:3] D2E2F2D2 | 
[V:4] A8- | 
[V:5] D,2C,2D,4 | 
[V:1] C6D2 | 
[V:2] e4c4- | 
[V:3] E8 | 
[V:4] A8 | 
[V:5] A,,8 | 
[V:1] E2F2G4- | 
[V:2] c2d2e2f2 | 
[V:3] C6D2 | 
[V:4] G8- | 
[V:5] z4C,4- | 
[V:1] G4z4 | 
[V:2] g8 | 
[V:3] E2F2G4- | 
[V:4] G8- | 
[V:5] C,2D,2E,2F,2 | 
[V:1] D6E2 | 
[V:2] z4d4- | 
[V:3] G2A2B2c2 | 
[V:4] G8 | 
[V:5] G,8 | 
[V:1] F2G2A4 | 
[V:2] d2e2f2g2 | 
[V:3] d4A4- | 
[V:4] A8- | 
[V:5] D,6E,2 | 
[V:1] A,6B,2 | 
[V:2] a4A4- | 
[V:3] A2B2c2d2 | 
[V:4] A8- | 
[V:5] F,2G,2A,4 | 
[V:1] C2D2E3F | 
[V:2] A2B2c3d | 
[V:3] e4E4- | 
[V:4] A8 | 
[V:5] A,,8 | 
[V:1] G8- | 
[V:2] e8- | 
[V:3] E2F2G3A | 
[V:4] B8- | 
[V:5] E,8- | 
[V:1] G8 |]  
[V:2] e8 |]  
[V:3] B8 |]  
[V:4] B8 |]  
[V:5] E,8 |]  



